css/images/noun-sydney-1039855.svg

<svg xmlns="http://www.w3.org/2000/svg" xmlns:xlink="http://www.w3.org/1999/xlink" version="1.1" x="0px" y="0px" viewBox="0 0 150 187.5" enable-background="new 0 0 150 150" xml:space="preserve"><g><g><rect x="15.2891312" y="90.9237366" width="119.8724136" height="2.3545649"/></g><g><path d="M143.6933899,102.872467c-4.2710876,0-7.9788361-2.4545898-9.7895966-6.025528    c-1.8096161,3.5709381-5.5185242,6.025528-9.7884674,6.025528c-4.2710953,0-7.9799957-2.4534378-9.7896118-6.0266724    c-1.8096085,3.5732346-5.5185089,6.0266724-9.7896042,6.0266724c-4.2699509,0-7.9788513-2.4545898-9.7884598-6.025528    c-1.8107605,3.5709381-5.5185165,6.025528-9.7896118,6.025528c-4.2699509,0-7.9788437-2.4545898-9.7884598-6.025528    c-1.8107605,3.5709381-5.5185089,6.025528-9.7896118,6.025528c-4.2699738,0-7.9788437-2.4545898-9.788456-6.025528    c-1.8107605,3.5709381-5.5185394,6.025528-9.7896118,6.025528c-4.2699471,0-7.9788475-2.4545898-9.7884598-6.025528    c-1.8107605,3.5709381-5.5185089,6.025528-9.789608,6.025528c-4.269949,0-7.9788475-2.4545898-9.7884598-6.025528    c-1.8107615,3.5709381-5.5185108,6.025528-9.789609,6.025528c-2.9593019,0-5.7335038-1.1611862-7.8121433-3.269722    l1.6762478-1.6532516c1.6337094,1.6567078,3.8123717,2.5684052,6.1358953,2.5684052    c4.7493687,0,8.6123266-3.8629532,8.6123266-8.6123199h2.3545647c0,4.7493668,3.8629589,8.6123199,8.6111774,8.6123199    c4.7493687,0,8.6123276-3.8629532,8.6123276-8.6123199h2.3545647c0,4.7493668,3.862957,8.6123199,8.6111755,8.6123199    c4.7493706,0,8.6123276-3.8629532,8.6123276-8.6123199h2.3545647c0,4.7493668,3.8629608,8.6123199,8.6111755,8.6123199    c4.7493744,0,8.6123276-3.8629532,8.6123276-8.6123199h2.3545685c0,4.7493668,3.8629532,8.6123199,8.6111755,8.6123199    c4.7493668,0,8.6123276-3.8629532,8.6123276-8.6123199h2.3545685c0,4.7493668,3.8629532,8.6123199,8.6111755,8.6123199    c4.7493668,0,8.6123276-3.8629532,8.6123276-8.6123199h2.3545609c0,4.7493668,3.8629608,8.6123199,8.6123276,8.6123199    c4.7482147,0,8.6111755-3.8629532,8.6111755-8.6123199h2.3545685c0,4.7493668,3.8629608,8.6123199,8.6123199,8.6123199    c2.1855621,0,4.2699585-0.819725,5.8680267-2.3097229l1.6049652,1.7222366    C149.131424,101.8274002,146.477951,102.872467,143.6933899,102.872467z"/></g><g><path d="M17.5333252,91.8538361c-1.6969423-8.8342133-5.3253632-15.7024612-10.784091-20.4150391l-1.913084-1.6509552    l2.4948273-0.4023895c10.7760439-1.7406311,20.581749-0.8185806,26.2313232,2.4637833l-1.181881,2.0349503    c-4.7873077-2.778801-12.9949455-3.6928024-22.2717934-2.5189667c4.8597393,4.952858,8.1306067,11.6819916,9.737874,20.044838    L17.5333252,91.8538361z"/></g><g><path d="M37.0792046,91.8273926c-2.0131073-11.9326248-6.2773075-22.9972458-12.675333-32.8845749l-1.1738319-1.815361    l2.161417-0.001152c0.0045986,0,0.0103474,0,0.0137959,0c14.0848522,0,28.4640217,14.3389359,29.06991,14.9494171    l-1.6716499,1.6578522c-0.1333656-0.1345139-12.7661552-12.7213173-25.2000542-14.126236    c5.8956108,9.6562424,9.8620415,20.3529587,11.7981186,31.8291626L37.0792046,91.8273926z"/></g><g><path d="M58.7002716,91.9320145c-3.6548653-13.8939972-9.4665451-27.9351616-17.7661591-42.9259682l-0.8841095-1.59692    l1.8199577-0.1471596c16.5026474-1.3198433,30.6024437,7.0671425,43.0926781,25.6760216l-1.9544754,1.3129501    C71.5089645,57.1159592,58.7209663,48.9968491,43.8934135,49.5038605    C51.8113289,64.056633,57.4057198,77.75634,60.9766579,91.3318787L58.7002716,91.9320145z"/></g><g><path d="M102.9012527,91.7710648l-2.3384705-0.2782288c0.9277954-7.778801,4.0446091-14.7585678,9.2630463-20.7450027    l1.7751236,1.5474777C106.6296921,77.9977798,103.7842102,84.3682098,102.9012527,91.7710648z"/></g><g><path d="M66.9573441,92.2918701l-1.9498749-1.3198471c12.4430923-18.3961868,30.8496323-28.0294342,54.7091446-28.6318741    l3.9008942-0.0977211l-3.1949844,2.2395973c-2.6419907,1.8509979-5.0183945,3.8422623-7.0659943,5.9197464l-1.6762466-1.6532516    c1.3117981-1.331337,2.7512054-2.6281891,4.3021393-3.8767548C94.7637405,66.3330231,78.2840881,75.5454865,66.9573441,92.2918701    z"/></g><g><path d="M130.6720123,92.0929718c-4.4585037-10.489769-10.4725266-17.3235245-18.3030701-20.7553482    c3.72155,4.9195251,5.7967377,11.5877228,6.3175507,20.2230453l-2.349968,0.1425629    c-0.6185303-10.2586823-3.5019531-17.4971313-8.8146744-22.1315308l-3.7813263-3.2984619l4.8539886,1.271553    c10.7553482,2.8201904,18.6859131,10.5484085,24.243515,23.6261292L130.6720123,92.0929718z"/></g></g><text x="0" y="165" fill="#000000" font-size="5px" font-weight="bold" font-family="'Helvetica Neue', Helvetica, Arial-Unicode, Arial, Sans-serif">Created by DinosoftLabs</text><text x="0" y="170" fill="#000000" font-size="5px" font-weight="bold" font-family="'Helvetica Neue', Helvetica, Arial-Unicode, Arial, Sans-serif">from the Noun Project</text></svg>

<svg width="150" height="188" viewBox="0 0 150 188" fill="none" xmlns="http://www.w3.org/2000/svg">
<g clip-path="url(#clip0_1_405)">
<path d="M135.162 90.9237H15.2891V93.2783H135.162V90.9237Z" fill="black"/>
<path d="M143.693 102.872C139.422 102.872 135.715 100.418 133.904 96.8469C132.094 100.418 128.385 102.872 124.115 102.872C119.844 102.872 116.135 100.419 114.326 96.8458C112.516 100.419 108.807 102.872 104.536 102.872C100.266 102.872 96.5573 100.418 94.7477 96.8469C92.9369 100.418 89.2291 102.872 84.958 102.872C80.6881 102.872 76.9792 100.418 75.1696 96.8469C73.3588 100.418 69.6511 102.872 65.38 102.872C61.11 102.872 57.4011 100.418 55.5915 96.8469C53.7808 100.418 50.073 102.872 45.8019 102.872C41.532 102.872 37.8231 100.418 36.0134 96.8469C34.2027 100.418 30.4949 102.872 26.2238 102.872C21.9539 102.872 18.245 100.418 16.4354 96.8469C14.6246 100.418 10.9169 102.872 6.64576 102.872C3.68646 102.872 0.912258 101.711 -1.16638 99.6027L0.509866 97.9495C2.14358 99.6062 4.32224 100.518 6.64576 100.518C11.3951 100.518 15.2581 96.6549 15.2581 91.9056H17.6127C17.6127 96.6549 21.4756 100.518 26.2238 100.518C30.9732 100.518 34.8362 96.6549 34.8362 91.9056H37.1907C37.1907 96.6549 41.0537 100.518 45.8019 100.518C50.5513 100.518 54.4142 96.6549 54.4142 91.9056H56.7688C56.7688 96.6549 60.6318 100.518 65.38 100.518C70.1293 100.518 73.9923 96.6549 73.9923 91.9056H76.3469C76.3469 96.6549 80.2098 100.518 84.958 100.518C89.7074 100.518 93.5704 96.6549 93.5704 91.9056H95.9249C95.9249 96.6549 99.7879 100.518 104.536 100.518C109.285 100.518 113.148 96.6549 113.148 91.9056H115.503C115.503 96.6549 119.366 100.518 124.115 100.518C128.864 100.518 132.727 96.6549 132.727 91.9056H135.081C135.081 96.6549 138.944 100.518 143.693 100.518C145.879 100.518 147.963 99.6982 149.561 98.2082L151.166 99.9304C149.131 101.827 146.478 102.872 143.693 102.872Z" fill="black"/>
<path d="M17.5333 91.8538C15.8364 83.0196 12.208 76.1514 6.74924 71.4388L4.83615 69.7878L7.33098 69.3854C18.107 67.6448 27.9127 68.5669 33.5623 71.8492L32.3804 73.8842C27.5931 71.1054 19.3855 70.1914 10.1086 71.3652C14.9684 76.3181 18.2392 83.0472 19.8465 91.4101L17.5333 91.8538Z" fill="black"/>
<path d="M37.0792 91.8274C35.0661 79.8948 30.8019 68.8302 24.4039 58.9428L23.23 57.1275L25.3915 57.1263C25.3961 57.1263 25.4018 57.1263 25.4053 57.1263C39.4901 57.1263 53.8693 71.4652 54.4752 72.0757L52.8035 73.7336C52.6701 73.5991 40.0374 61.0123 27.6035 59.6073C33.4991 69.2636 37.4655 79.9603 39.4016 91.4365L37.0792 91.8274Z" fill="black"/>
<path d="M58.7003 91.932C55.0454 78.038 49.2337 63.9969 40.9341 49.006L40.05 47.4091L41.8699 47.262C58.3726 45.9421 72.4724 54.3291 84.9626 72.938L83.0081 74.2509C71.5089 57.116 58.721 48.9968 43.8934 49.5039C51.8113 64.0566 57.4057 77.7563 60.9766 91.3319L58.7003 91.932Z" fill="black"/>
<path d="M102.901 91.7711L100.563 91.4928C101.491 83.714 104.607 76.7343 109.826 70.7478L111.601 72.2953C106.63 77.9978 103.784 84.3682 102.901 91.7711Z" fill="black"/>
<path d="M66.9574 92.2919L65.0075 90.972C77.4506 72.5758 95.8571 62.9426 119.717 62.3402L123.618 62.2424L120.423 64.482C117.781 66.333 115.404 68.3243 113.357 70.4018L111.68 68.7485C112.992 67.4172 114.431 66.1203 115.982 64.8718C94.7637 66.333 78.2841 75.5455 66.9574 92.2919Z" fill="black"/>
<path d="M130.672 92.093C126.214 81.6032 120.2 74.7694 112.369 71.3376C116.091 76.2571 118.166 82.9253 118.687 91.5607L116.337 91.7032C115.718 81.4445 112.835 74.2061 107.522 69.5717L103.741 66.2732L108.595 67.5448C119.35 70.365 127.28 78.0932 132.838 91.1709L130.672 92.093Z" fill="black"/>
</g>
<defs>
<clipPath id="clip0_1_405">
<rect width="150" height="187.5" fill="white"/>
</clipPath>
</defs>
</svg>
